X:91
T:The Dark and Wanting Side
R:reel
C: 1999, 2010 L.E. McCullough  
M:4/4
L:1/8
K:Ador
z6z D|:E~A3 ~A2GA|B~A3 edBA|~G3A BA (3B^cd|e~g3 aged|
E~A3 ~A2GA|B~A3 edBA|GEDE GA (3BAG|1 egdB ~A3D:|2 egdB~A3d|] 
|:e~g3 a2 ge|g~a3 b2ag|b~g3 aged|egdB ~A3d|
e~g3 a2 ge|g~a3 b2ag|b~g3 ageg|1 dgbg ~a3d:|2 dgbg a2 gd|]

